X:1
C: E. J. Hopkins
M: none
L:1/2
%%staves [(S A) (T B)]
K:Bb
V:S clef=treble
B2 | A B | F2 || F2 | G F | B c | A2 || B2 | A B | G2 || F2 | d c | A A | B2|]
V:A clef=treble
D2 | E D | C2 || D2 | C E | D =E | F2 || F2 | ^F F | G2 || D2 | F =E | F _E | D2 |]
V:T clef=bass octave=-1
F2 | F F | A2 || B2 | B A | B B | c2 || B2 | c c | B2 || B2 | B c | d c | B2 |]
V:B clef=bass octave=-1
B2 | C D | E2 || D2 | E F | G G | F2 || D2 | D D | E2 || F2 | G G | F F | B,2 |]
